symbols/web/cloud_off/materialsymbolsrounded/cloud_off_wght700_24px.svg

<svg xmlns="http://www.w3.org/2000/svg" height="24" width="24"><path d="m22.125 19.375-2.25-2.225q.375-.35.563-.725.187-.375.187-.85 0-.875-.625-1.5t-1.5-.625h-1.875v-2.375q0-1.925-1.35-3.275Q13.925 6.45 12 6.45q-.675 0-1.212.175-.538.175-.988.425L7.525 4.775q.875-.7 2.075-1.088Q10.8 3.3 12 3.3q3.05 0 5.25 2.075t2.475 5.1q1.8.475 2.925 1.9 1.125 1.425 1.125 3.275 0 1.125-.487 2.138-.488 1.012-1.163 1.587Zm-2.825 3.35-1.875-1.875H6.5q-2.625 0-4.45-1.825Q.225 17.2.225 14.575q0-2.025 1.25-3.763 1.25-1.737 3.25-2.187.025-.05.025-.213 0-.162.025-.212L1.5 4.925q-.35-.35-.35-.838 0-.487.35-.837t.838-.35q.487 0 .837.35l17.8 17.8q.35.35.35.837 0 .488-.35.838t-.837.35q-.488 0-.838-.35ZM6.5 17.7h7.775L7.45 10.875q0 .15-.012.287-.013.138-.013.288H6.5q-1.3 0-2.213.912-.912.913-.912 2.213t.912 2.213Q5.2 17.7 6.5 17.7Zm8.35-5.6Zm-4 2.175Z"/></svg>

<svg xmlns="http://www.w3.org/2000/svg" height="24" width="24"><path d="M22.125 19.375 19.875 17.15Q20.25 16.8 20.438 16.425Q20.625 16.05 20.625 15.575Q20.625 14.7 20 14.075Q19.375 13.45 18.5 13.45H16.625V11.075Q16.625 9.15 15.275 7.8Q13.925 6.45 12 6.45Q11.325 6.45 10.788 6.625Q10.25 6.8 9.8 7.05L7.525 4.775Q8.4 4.075 9.6 3.687Q10.8 3.3 12 3.3Q15.05 3.3 17.25 5.375Q19.45 7.45 19.725 10.475Q21.525 10.95 22.65 12.375Q23.775 13.8 23.775 15.65Q23.775 16.775 23.288 17.788Q22.8 18.8 22.125 19.375ZM19.3 22.725 17.425 20.85H6.5Q3.875 20.85 2.05 19.025Q0.225 17.2 0.225 14.575Q0.225 12.55 1.475 10.812Q2.725 9.075 4.725 8.625Q4.75 8.575 4.75 8.412Q4.75 8.25 4.775 8.2L1.5 4.925Q1.15 4.575 1.15 4.087Q1.15 3.6 1.5 3.25Q1.85 2.9 2.338 2.9Q2.825 2.9 3.175 3.25L20.975 21.05Q21.325 21.4 21.325 21.887Q21.325 22.375 20.975 22.725Q20.625 23.075 20.138 23.075Q19.65 23.075 19.3 22.725ZM6.5 17.7H14.275L7.45 10.875Q7.45 11.025 7.438 11.162Q7.425 11.3 7.425 11.45H6.5Q5.2 11.45 4.287 12.362Q3.375 13.275 3.375 14.575Q3.375 15.875 4.287 16.788Q5.2 17.7 6.5 17.7ZM14.85 12.1Q14.85 12.1 14.85 12.1Q14.85 12.1 14.85 12.1Q14.85 12.1 14.85 12.1Q14.85 12.1 14.85 12.1Q14.85 12.1 14.85 12.1Q14.85 12.1 14.85 12.1Q14.85 12.1 14.85 12.1Q14.85 12.1 14.85 12.1ZM10.85 14.275Q10.85 14.275 10.85 14.275Q10.85 14.275 10.85 14.275Q10.85 14.275 10.85 14.275Q10.85 14.275 10.85 14.275Q10.85 14.275 10.85 14.275Q10.85 14.275 10.85 14.275Z"/></svg>
